public/flags/au.svg

<svg xmlns="http://www.w3.org/2000/svg" xmlns:xlink="http://www.w3.org/1999/xlink" viewBox="0 0 10080 5040">
<defs>
<clipPath id="c">
<path d="M0,0V1.5H7V3H6zM6,0H3V3.5H0V3z"/>
</clipPath>
<path id="Star7" d="M0,-360 69.421398,-144.155019 281.459334,-224.456329 155.988466,-35.603349 350.974048,80.107536 125.093037,99.758368 156.198146,324.348792 0,160 -156.198146,324.348792 -125.093037,99.758368 -350.974048,80.107536 -155.988466,-35.603349 -281.459334,-224.456329 -69.421398,-144.155019z"/>
<path id="Star5" d="M0,-210 54.859957,-75.508253 199.721868,-64.893569 88.765275,28.841586 123.434903,169.893569 0,93.333333 -123.434903,169.893569 -88.765275,28.841586 -199.721868,-64.893569 -54.859957,-75.508253z"/>
<use id="Cstar" xlink:href="#Star7" transform="scale(2.1)"/>
</defs>
<g transform="scale(840)">
<rect width="12" height="6" fill="#00008b"/>
<path d="M0,0 6,3M6,0 0,3" stroke="#fff" stroke-width="0.6"/>
<path d="M0,0 6,3M6,0 0,3" stroke="#f00" stroke-width="0.4" clip-path="url(#c)"/>
<path d="M3,0V3.5M0,1.5H7" stroke="#fff"/>
<path d="M3,0V3.5M0,1.5H7" stroke="#f00" stroke-width="0.6"/>
<path d="M0,3H6V0H8V4H0z" fill="#00008b"/>
</g>
<g fill="#fff">
<use id="Comwlth" xlink:href="#Cstar" x="2520" y="3780"/>
<use id="&#x3B1;Crucis" xlink:href="#Star7" x="7560" y="4200"/>
<use id="&#x3B2;Crucis" xlink:href="#Star7" x="6300" y="2205"/>
<use id="&#x3B3;Crucis" xlink:href="#Star7" x="7560" y="840"/>
<use id="&#x3B4;Crucis" xlink:href="#Star7" x="8680" y="1869"/>
<use id="&#x3B5;Crucis" xlink:href="#Star5" x="8064" y="2730"/>
</g>
</svg>

<svg xmlns="http://www.w3.org/2000/svg" xmlns:xlink="http://www.w3.org/1999/xlink" viewBox="0 0 10080 5040"><defs><path id="a" d="m0-360 69.421 215.845 212.038-80.301L155.99-35.603l194.985 115.71-225.881 19.651 31.105 224.59L0 160l-156.198 164.349 31.105-224.59-225.881-19.651 194.986-115.711-125.471-188.853 212.038 80.301z"/><path id="e" d="M0-210 54.86-75.508l144.862 10.614L88.765 28.842l34.67 141.052L0 93.334l-123.435 76.56 34.67-141.052-110.957-93.736L-54.86-75.508z"/><clipPath id="b"><path d="M0 0v1.5h7V3H6zm6 0H3v3.5H0V3z"/></clipPath><use xlink:href="#a" id="c" transform="scale(2.1)"/></defs><path fill="#00008b" d="M0 0h10080v5040H0z"/><path stroke="#fff" stroke-width="504" d="m0 0 5040 2520m0-2520L0 2520"/><path stroke="red" stroke-width=".4" d="m0 0 6 3m0-3L0 3" clip-path="url(#b)" transform="scale(840)"/><path stroke="#fff" stroke-width="840" d="M2520 0v2940M0 1260h5880"/><path stroke="red" stroke-width="504" d="M2520 0v2940M0 1260h5880"/><path fill="#00008b" d="M0 2520h5040V0h1680v3360H0z"/><g fill="#fff"><use xlink:href="#c" x="2520" y="3780"/><use xlink:href="#a" x="7560" y="4200"/><use xlink:href="#a" x="6300" y="2205"/><use xlink:href="#a" x="7560" y="840"/><use xlink:href="#a" x="8680" y="1869"/><use xlink:href="#e" x="8064" y="2730"/></g></svg>
